outputs/icons/content/backspace_round.svg

<svg width="1200" height="1200" viewBox="0 0 1200 1200" fill="none" xmlns="http://www.w3.org/2000/svg"><g clip-path="url(#clip0_225_3302)"><path d="M1100.005 150H350.004C315.504 150 288.504 167.5 270.504 194L18.504 572.5C7.504 589.5 7.504 611 18.504 628L270.504 1006C288.504 1032 315.504 1050 350.004 1050H1100.005C1155.005 1050 1200.005 1005 1200.005 950V250C1200.005 195 1155.005 150 1100.005 150ZM915.005 815C895.505 834.5 864.005 834.5 844.505 815L700.005 670.5L555.505 815C536.005 834.5 504.505 834.5 485.004 815C465.504 795.5 465.504 764 485.004 744.5L629.505 600L485.004 455.5C465.504 436 465.504 404.5 485.004 385C504.505 365.5 536.005 365.5 555.505 385L700.005 529.5L844.505 385C864.005 365.5 895.505 365.5 915.005 385C934.505 404.5 934.505 436 915.005 455.5L770.505 600L915.005 744.5C934.005 763.5 934.005 795.5 915.005 815Z" fill="#1D1E23"/></g><defs><clipPath id="clip0_225_3302"><path width="24" fill="white" d="M0 0H1200V1200H0V0z"/></clipPath></defs></svg>

<svg xmlns="http://www.w3.org/2000/svg" width="1200" height="1200" fill="none"><g clip-path="url(#a)"><path fill="#000" d="M1100.005 150H350.004c-34.5 0-61.5 17.5-79.5 44l-252 378.5c-11 17-11 38.5 0 55.5l252 378c18 26 45 44 79.5 44h750.001c55 0 100-45 100-100V250c0-55-45-100-100-100m-185 665c-19.5 19.5-51 19.5-70.5 0l-144.5-144.5-144.5 144.5c-19.5 19.5-51 19.5-70.501 0-19.5-19.5-19.5-51 0-70.5L629.505 600 485.004 455.5c-19.5-19.5-19.5-51 0-70.5 19.501-19.5 51.001-19.5 70.501 0l144.5 144.5 144.5-144.5c19.5-19.5 51-19.5 70.5 0s19.5 51 0 70.5L770.505 600l144.5 144.5c19 19 19 51 0 70.5"/></g><defs><clipPath id="a"><path fill="#fff" d="M0 0h1200v1200H0z"/></clipPath></defs></svg>
